elementary-xfce/actions/48/go-jump.svg

<?xml version="1.0" encoding="UTF-8" standalone="no"?>
<svg xmlns:dc="http://purl.org/dc/elements/1.1/" xmlns:cc="http://creativecommons.org/ns#" xmlns:rdf="http://www.w3.org/1999/02/22-rdf-syntax-ns#" xmlns:svg="http://www.w3.org/2000/svg" xmlns="http://www.w3.org/2000/svg" xmlns:xlink="http://www.w3.org/1999/xlink" xmlns:sodipodi="http://sodipodi.sourceforge.net/DTD/sodipodi-0.dtd" xmlns:inkscape="http://www.inkscape.org/namespaces/inkscape" id="svg2395" height="48" width="48" version="1.1" sodipodi:docname="go-jump.svg" inkscape:version="0.92.3 (2405546, 2018-03-11)">
  <sodipodi:namedview pagecolor="#ffffff" bordercolor="#666666" borderopacity="1" objecttolerance="10" gridtolerance="10" guidetolerance="10" inkscape:pageopacity="0" inkscape:pageshadow="2" inkscape:window-width="1920" inkscape:window-height="962" id="namedview23" showgrid="false" inkscape:zoom="4.9166667" inkscape:cx="-10.271186" inkscape:cy="20.745763" inkscape:window-x="0" inkscape:window-y="30" inkscape:window-maximized="1" inkscape:current-layer="svg2395" />
  <defs id="defs2397">
    <linearGradient id="linearGradient5105">
      <stop offset="0" style="stop-color:#000000;stop-opacity:1" id="stop5107" />
      <stop offset="1" style="stop-color:#000000;stop-opacity:0" id="stop5109" />
    </linearGradient>
    <radialGradient gradientTransform="matrix(2.4806202,0,0,0.68217177,-4.9069767,26.517428)" gradientUnits="userSpaceOnUse" xlink:href="#linearGradient5105" id="radialGradient5855" fy="19.03125" fx="11.25" r="8.0625" cy="19.03125" cx="11.25" />
    <linearGradient gradientUnits="userSpaceOnUse" xlink:href="#linearGradient2867-449-88-871-390-598-476-591-434-148-57-177" id="linearGradient3169" y2="37" x2="25" y1="9" x1="25" gradientTransform="translate(1.4642454e-6)" />
    <linearGradient id="linearGradient5113">
      <stop offset="0" style="stop-color:#ffffff;stop-opacity:1" id="stop5115" />
      <stop offset="1" style="stop-color:#ffffff;stop-opacity:0" id="stop5117" />
    </linearGradient>
    <linearGradient gradientTransform="matrix(1.004639,0,0,1,-55.02133,-3.04779)" gradientUnits="userSpaceOnUse" xlink:href="#linearGradient5113" id="linearGradient5862" y2="58.047787" x2="105.32369" y1="2.047786" x1="58.748795" />
    <linearGradient id="linearGradient2867-449-88-871-390-598-476-591-434-148-57-177">
      <stop offset="0" style="stop-color:#8cd5ff;stop-opacity:1" id="stop3750" />
      <stop offset="0.26238" style="stop-color:#64baff;stop-opacity:1" id="stop3752" />
      <stop offset="0.704952" style="stop-color:#3689e6;stop-opacity:1" id="stop3754" />
      <stop offset="1" style="stop-color:#0d52bf;stop-opacity:1" id="stop3756" />
    </linearGradient>
  </defs>
  <metadata id="metadata2400">
    <rdf:RDF>
      <cc:Work rdf:about="">
        <dc:format>image/svg+xml</dc:format>
        <dc:type rdf:resource="http://purl.org/dc/dcmitype/StillImage" />
        <dc:title />
      </cc:Work>
    </rdf:RDF>
  </metadata>
  <path inkscape:connector-curvature="0" d="m 43,39.499995 a 20,5.5000053 0 1 1 -40,0 20,5.5000053 0 1 1 40,0 z" id="path4346" style="color:#000000;display:inline;overflow:visible;visibility:visible;opacity:0.16292138;fill:url(#radialGradient5855);fill-opacity:1;fill-rule:nonzero;stroke:none;stroke-width:2.46102214;marker:none" />
  <path inkscape:connector-curvature="0" d="M 42.500001,25.52548 30.464751,39.5 18.489821,25.52548 h 6.09179 c 2.0473,-5.48597 -2.1567,-8.9778 -7.03107,-8.9778 -3.46376,0 -8.1632295,1.90496 -9.7506795,6.6414 -0.82566,2.46352 -2.27994,1.38432 -2.22374,-0.75674 0.21753,-8.26181 6.3428795,-14.86901 15.4870195,-14.86901 9.14414,0 15.93686,7.09859 15.42377,17.96215 z" id="path4972" style="color:#000000;display:inline;overflow:visible;visibility:visible;fill:url(#linearGradient3169);fill-opacity:1;fill-rule:nonzero;stroke:#0d52bf;stroke-width:1;stroke-linecap:butt;stroke-linejoin:round;stroke-miterlimit:4;stroke-dasharray:none;stroke-dashoffset:0;stroke-opacity:0.49803922;marker:none" />
  <path inkscape:connector-curvature="0" d="m 40.382151,26.52548 -9.9174,11.5424 -9.85707,-11.5424 h 4.69895 C 27.784391,21 24.207911,15.62862 18.000001,15.52859 14.100751,15.46576 12.053051,16.76164 9.3376015,19 c -1.48801,1.22658 -2.24772,3.63896 -2.59822,4.51309 -0.48056,0.02462 -0.19802,-2.6805 0.26062,-4.36294 1.67191,-6.13316 6.8466195,-10.65078 14.1838795,-10.66448 7.33726,-0.0137 15.30137,5.0245 14.30303,18.03981 z" id="path4980" style="color:#000000;display:inline;overflow:visible;visibility:visible;opacity:0.35400008;fill:none;stroke:url(#linearGradient5862);stroke-width:0.99999958;stroke-linecap:butt;stroke-linejoin:miter;stroke-miterlimit:4;stroke-dasharray:none;stroke-dashoffset:0;stroke-opacity:1;marker:none;enable-background:accumulate" />
</svg>

<?xml version="1.0" encoding="UTF-8" standalone="no"?>
<svg
   xmlns:dc="http://purl.org/dc/elements/1.1/"
   xmlns:cc="http://creativecommons.org/ns#"
   xmlns:rdf="http://www.w3.org/1999/02/22-rdf-syntax-ns#"
   xmlns:svg="http://www.w3.org/2000/svg"
   xmlns="http://www.w3.org/2000/svg"
   xmlns:xlink="http://www.w3.org/1999/xlink"
   width="48px"
   height="48px"
   id="svg2395"
   version="1.1">
  <defs
     id="defs2397">
    <linearGradient
       id="linearGradient5105">
      <stop
         id="stop5107"
         offset="0"
         style="stop-color:black;stop-opacity:1;" />
      <stop
         id="stop5109"
         offset="1"
         style="stop-color:black;stop-opacity:0;" />
    </linearGradient>
    <radialGradient
       xlink:href="#linearGradient5105"
       id="radialGradient5855"
       gradientUnits="userSpaceOnUse"
       gradientTransform="matrix(1,0,0,0.282946,0,13.64644)"
       cx="11.25"
       cy="19.03125"
       fx="11.25"
       fy="19.03125"
       r="8.0625" />
    <linearGradient
       id="linearGradient3163">
      <stop
         style="stop-color:#729fcf;stop-opacity:1;"
         offset="0"
         id="stop3165" />
      <stop
         style="stop-color:#3465a4;stop-opacity:1;"
         offset="1"
         id="stop3167" />
    </linearGradient>
    <linearGradient
       xlink:href="#linearGradient3163"
       id="linearGradient3169"
       x1="25"
       y1="9"
       x2="25"
       y2="37"
       gradientUnits="userSpaceOnUse" />
    <linearGradient
       id="linearGradient5113">
      <stop
         id="stop5115"
         offset="0"
         style="stop-color:white;stop-opacity:1;" />
      <stop
         id="stop5117"
         offset="1"
         style="stop-color:white;stop-opacity:0;" />
    </linearGradient>
    <linearGradient
       xlink:href="#linearGradient5113"
       id="linearGradient5862"
       gradientUnits="userSpaceOnUse"
       gradientTransform="matrix(1.004639,0,0,1,-55.021331,-3.04779)"
       x1="58.748795"
       y1="2.047786"
       x2="105.32369"
       y2="58.047787" />
  </defs>
  <metadata
     id="metadata2400">
    <rdf:RDF>
      <cc:Work
         rdf:about="">
        <dc:format>image/svg+xml</dc:format>
        <dc:type
           rdf:resource="http://purl.org/dc/dcmitype/StillImage" />
      </cc:Work>
    </rdf:RDF>
  </metadata>
  <g
     id="layer1">
    <path
       style="opacity:0.16292138000000000;color:#000000;fill:url(#radialGradient5855);fill-opacity:1;fill-rule:nonzero;stroke:none;stroke-width:1;stroke-linecap:butt;stroke-linejoin:miter;marker:none;marker-start:none;marker-mid:none;marker-end:none;stroke-miterlimit:4;stroke-dasharray:none;stroke-dashoffset:0;stroke-opacity:1;visibility:visible;display:inline;overflow:visible"
       id="path4346"
       d="M 19.3125,19.03125 A 8.0625,2.28125 0 1 1 3.1875,19.03125 A 8.0625,2.28125 0 1 1 19.3125,19.03125 z"
       transform="matrix(2.5121226,0,0,2.410961,-4.51537,-13.87225)" />
    <path
       id="path4972"
       d="M 42.5,25.52548 L 30.46475,39.5 L 18.48982,25.52548 L 24.58161,25.52548 C 26.62891,20.03951 22.42491,16.54768 17.55054,16.54768 C 14.08678,16.54768 9.38731,18.45264 7.79986,23.18908 C 6.9742,25.6526 5.51992,24.5734 5.57612,22.43234 C 5.79365,14.17053 11.919,7.56333 21.06314,7.56333 C 30.20728,7.56333 37,14.66192 36.48691,25.52548 L 42.5,25.52548 z"
       style="color:#000000;fill:url(#linearGradient3169);fill-opacity:1;fill-rule:nonzero;stroke:#204a87;stroke-width:0.99999963999999997;stroke-linecap:butt;stroke-linejoin:miter;marker:none;marker-start:none;marker-mid:none;marker-end:none;stroke-miterlimit:4;stroke-dasharray:none;stroke-dashoffset:0;stroke-opacity:1;visibility:visible;display:inline;overflow:visible" />
    <path
       style="opacity:0.35400002000000003;color:#000000;fill:none;fill-opacity:1;fill-rule:nonzero;stroke:url(#linearGradient5862);stroke-width:0.99999958000000000;stroke-linecap:butt;stroke-linejoin:miter;marker:none;marker-start:none;marker-mid:none;marker-end:none;stroke-miterlimit:4;stroke-dasharray:none;stroke-dashoffset:0;stroke-opacity:1;visibility:visible;display:inline;overflow:visible;enable-background:accumulate"
       d="M 40.38215,26.52548 L 30.46475,38.06788 L 20.60768,26.52548 L 25.30663,26.52548 C 27.78439,21 24.20791,15.62862 18,15.52859 C 14.10075,15.46576 12.05305,16.76164 9.3376,19 C 7.84959,20.22658 7.08988,22.63896 6.73938,23.51309 C 6.25882,23.53771 6.54136,20.83259 7,19.15015 C 8.67191,13.01699 13.84662,8.49937 21.18388,8.48567 C 28.52114,8.47197 36.48525,13.51017 35.48691,26.52548 L 40.38215,26.52548 z"
       id="path4980" />
  </g>
</svg>
